icons/circle/48/museeks.svg

<?xml version="1.0" encoding="UTF-8" standalone="no"?>
<svg id="svg2" version="1.1" xmlns:rdf="http://www.w3.org/1999/02/22-rdf-syntax-ns#" xmlns="http://www.w3.org/2000/svg" xmlns:cc="http://creativecommons.org/ns#" xmlns:dc="http://purl.org/dc/elements/1.1/" viewBox="0 0 48 48">
 <metadata id="metadata53">
  <rdf:RDF>
   <cc:Work rdf:about="">
    <dc:format>image/svg+xml</dc:format>
    <dc:type rdf:resource="http://purl.org/dc/dcmitype/StillImage"/>
    <dc:title/>
   </cc:Work>
  </rdf:RDF>
 </metadata>
 <defs id="defs4">
  <linearGradient id="linearGradient3764" gradientUnits="userSpaceOnUse" x2="47" gradientTransform="matrix(0 -1 1 0 -.0000015 48)" x1="1">
   <stop id="stop7" style="stop-color:#15a9db" offset="0"/>
   <stop id="stop9" style="stop-color:#1cb5e9" offset="1"/>
  </linearGradient>
 </defs>
 <g id="g11">
  <path id="path13" d="m36.31 5c5.859 4.062 9.688 10.831 9.688 18.5 0 12.426-10.07 22.5-22.5 22.5-7.669 0-14.438-3.828-18.5-9.688 1.037 1.822 2.306 3.499 3.781 4.969 4.085 3.712 9.514 5.969 15.469 5.969 12.703 0 23-10.298 23-23 0-5.954-2.256-11.384-5.969-15.469-1.469-1.475-3.147-2.744-4.969-3.781zm4.969 3.781c3.854 4.113 6.219 9.637 6.219 15.719 0 12.703-10.297 23-23 23-6.081 0-11.606-2.364-15.719-6.219 4.16 4.144 9.883 6.719 16.219 6.719 12.703 0 23-10.298 23-23 0-6.335-2.575-12.06-6.719-16.219z" style="opacity:.05"/>
  <path id="path15" d="m41.28 8.781c3.712 4.085 5.969 9.514 5.969 15.469 0 12.703-10.297 23-23 23-5.954 0-11.384-2.256-15.469-5.969 4.113 3.854 9.637 6.219 15.719 6.219 12.703 0 23-10.298 23-23 0-6.081-2.364-11.606-6.219-15.719z" style="opacity:.1"/>
  <path id="path17" d="m31.25 2.375c8.615 3.154 14.75 11.417 14.75 21.13 0 12.426-10.07 22.5-22.5 22.5-9.708 0-17.971-6.135-21.12-14.75a23 23 0 0 0 44.875 -7 23 23 0 0 0 -16 -21.875z" style="opacity:.2"/>
 </g>
 <g id="g19">
  <path id="path21" d="m24 1c12.703 0 23 10.297 23 23s-10.297 23-23 23-23-10.297-23-23 10.297-23 23-23z" style="fill:url(#linearGradient3764)"/>
 </g>
 <g id="g47">
  <path id="path49" d="m40.03 7.531c3.712 4.084 5.969 9.514 5.969 15.469 0 12.703-10.297 23-23 23-5.954 0-11.384-2.256-15.469-5.969 4.178 4.291 10.01 6.969 16.469 6.969 12.703 0 23-10.298 23-23 0-6.462-2.677-12.291-6.969-16.469z" style="opacity:.1"/>
 </g>
 <path id="path4232" d="m13 12v26l7.889-6.838 4.111 3.838 4-4v6h8v-24h-4l-8.9043 8.6172-11.096-9.617zm20.809 3h1.191v20h-4v-8.828l-6.049 6.047-2.541-2.373 5.59-4.846-2.387-2.068 8.196-7.932zm-18.809 1.381 9.945 8.619-9.945 8.619v-17.238z" style="opacity:.1"/>
 <path id="rect4145" d="m12 11v26l7.889-6.838 4.111 3.838 4-4v6h8v-24h-4l-8.904 8.617-11.096-9.617zm20.809 3h1.191v20h-4v-8.828l-6.049 6.047-2.541-2.373 5.59-4.846-2.387-2.068 8.196-7.932zm-18.809 1.381l9.945 8.619-9.945 8.619v-17.238z" style="fill:#f9f9f9"/>
</svg>

<svg xmlns="http://www.w3.org/2000/svg" viewBox="0 0 48 48">
  <defs>
    <linearGradient id="a" gradientUnits="userSpaceOnUse" x2="47" gradientTransform="rotate(-90 24 24)" x1="1">
      <stop offset="0" stop-color="#15a9db"/>
      <stop offset="1" stop-color="#1cb5e9"/>
    </linearGradient>
  </defs>
  <path d="M36.31 5c5.859 4.062 9.688 10.831 9.688 18.5 0 12.426-10.07 22.5-22.5 22.5-7.669 0-14.438-3.828-18.5-9.688a23.24 23.24 0 0 0 3.781 4.969 22.923 22.923 0 0 0 15.469 5.969c12.703 0 23-10.298 23-23a22.92 22.92 0 0 0-5.969-15.469A23.216 23.216 0 0 0 36.31 5zm4.969 3.781A22.911 22.911 0 0 1 47.498 24.5c0 12.703-10.297 23-23 23a22.909 22.909 0 0 1-15.719-6.219C12.939 45.425 18.662 48 24.998 48c12.703 0 23-10.298 23-23 0-6.335-2.575-12.06-6.719-16.219z" opacity=".05"/>
  <path d="M41.28 8.781a22.923 22.923 0 0 1 5.969 15.469c0 12.703-10.297 23-23 23A22.92 22.92 0 0 1 8.78 41.281 22.911 22.911 0 0 0 24.499 47.5c12.703 0 23-10.298 23-23A22.909 22.909 0 0 0 41.28 8.781z" opacity=".1"/>
  <path d="M31.25 2.375C39.865 5.529 46 13.792 46 23.505c0 12.426-10.07 22.5-22.5 22.5-9.708 0-17.971-6.135-21.12-14.75a23 23 0 0 0 44.875-7 23 23 0 0 0-16-21.875z" opacity=".2"/>
  <path d="M24 1c12.703 0 23 10.297 23 23S36.703 47 24 47 1 36.703 1 24 11.297 1 24 1z" fill="url(#a)"/>
  <path d="M40.03 7.531A22.922 22.922 0 0 1 45.999 23c0 12.703-10.297 23-23 23A22.92 22.92 0 0 1 7.53 40.031C11.708 44.322 17.54 47 23.999 47c12.703 0 23-10.298 23-23 0-6.462-2.677-12.291-6.969-16.469z" opacity=".1"/>
  <path d="M13 12v26l7.889-6.838L25 35l4-4v6h8V13h-4l-8.904 8.617L13 12zm20.809 3H35v20h-4v-8.828l-6.049 6.047-2.541-2.373L28 25l-2.387-2.068L33.809 15zM15 16.381L24.945 25 15 33.619V16.381z" opacity=".1"/>
  <path d="M12 11v26l7.889-6.838L24 34l4-4v6h8V12h-4l-8.904 8.617L12 11zm20.809 3H34v20h-4v-8.828l-6.049 6.047-2.541-2.373L27 24l-2.387-2.068L32.809 14zM14 15.381L23.945 24 14 32.619V15.381z" fill="#f9f9f9"/>
</svg>
